X:691
T:Mrs. Douglas of Ednam
R:Reel
B:The Athole Collection
M:C|
L:1/8
K:A
d|ceae ceae|ceae fBBd|ceae fedc|dBed cAA:|
d|cA A/A/A EAAc|dBcA GBBd|cA A/A/A EAAc|dfed cAAd|
cA A/A/A EAAc|dBcA GBBd|cAeA fAec|defg aAA||

